X: 4438
M: 2/4
L: 1/16
K: F
|: !p!\
cdef g2e2 | fefg afcB |\
cdef gcde | f2a2f2z2 H:|\
|: !f!\
g2d2 def2 | e2c2 cde2 |
d2A2=B2G2 | c=Bcd edef |\
g2d2 def2 | e2c2 cde2 |\
d2A2=B2G2 | c2e2c2z2 :|\
|:[K:Bb] "_p 2nd f"\
d2d2c2B2 | (B2A2)A4 |\
(g2f2)d2B2 |\
d2c2G2 (^FG) | d2c2A2G2 |\
d2d2c2B2 | (B2A2)A4 |\
d2c2G2A2 | B6 "_D.C."z2 :|


